assets/svg/award-o.svg

<?xml version="1.0" encoding="UTF-8"?>
<svg width="1000px" height="1000px" viewBox="0 0 1000 1000" version="1.1" xmlns="http://www.w3.org/2000/svg" xmlns:xlink="http://www.w3.org/1999/xlink">
    <!-- Generator: sketchtool 52.4 (67378) - http://www.bohemiancoding.com/sketch -->
    <title>award-o</title>
    <desc>Created with sketchtool.</desc>
    <g id="新版图标" stroke="none" stroke-width="1" fill="none" fill-rule="evenodd">
        <g id="award-o" fill="#323233" fill-rule="nonzero">
            <g id="直角-邀请奖励-线">
                <path d="M500,666.666667 C653.41243,666.666667 777.777778,542.301319 777.777778,388.888889 C777.777778,235.476458 653.41243,111.111111 500,111.111111 C346.58757,111.111111 222.222222,235.476458 222.222222,388.888889 C222.222222,542.301319 346.58757,666.666667 500,666.666667 Z M500,722.222222 C315.905083,722.222222 166.666667,572.983805 166.666667,388.888889 C166.666667,204.793972 315.905083,55.5555556 500,55.5555556 C684.094917,55.5555556 833.333333,204.793972 833.333333,388.888889 C833.333333,572.983805 684.094917,722.222222 500,722.222222 Z" id="Oval-5"></path>
                <path d="M500,458.333333 C538.353108,458.333333 569.444444,427.241997 569.444444,388.888889 C569.444444,350.535781 538.353108,319.444444 500,319.444444 C461.646892,319.444444 430.555556,350.535781 430.555556,388.888889 C430.555556,427.241997 461.646892,458.333333 500,458.333333 Z M500,513.888889 C430.964406,513.888889 375,457.924483 375,388.888889 C375,319.853295 430.964406,263.888889 500,263.888889 C569.035594,263.888889 625,319.853295 625,388.888889 C625,457.924483 569.035594,513.888889 500,513.888889 Z" id="Oval-5"></path>
                <path d="M388.888889,860.577037 L500,813.510812 L611.111111,860.577037 L611.111111,702.358172 C574.611369,715.803795 537.65344,722.631878 500.377556,722.631878 C462.921504,722.631878 425.713848,715.738085 388.888889,702.164573 L388.888889,860.577037 Z M333.333333,611.450195 C389.254623,648.53428 444.93603,667.076323 500.377556,667.076323 C555.819082,667.076323 611.248785,648.53428 666.666667,611.450195 L666.666667,944.444444 L500,873.845107 L333.333333,944.444444 L333.333333,611.450195 Z" id="Rectangle-27"></path>
            </g>
        </g>
    </g>
</svg>

<svg width="1000" height="1000" xmlns="http://www.w3.org/2000/svg"><g fill="#323233" fill-rule="nonzero"><path d="M500 666.667c153.412 0 277.778-124.366 277.778-277.778 0-153.413-124.366-277.778-277.778-277.778-153.412 0-277.778 124.365-277.778 277.778 0 153.412 124.366 277.778 277.778 277.778zm0 55.555c-184.095 0-333.333-149.238-333.333-333.333 0-184.095 149.238-333.333 333.333-333.333 184.095 0 333.333 149.238 333.333 333.333 0 184.095-149.238 333.333-333.333 333.333z"/><path d="M500 458.333c38.353 0 69.444-31.091 69.444-69.444s-31.09-69.445-69.444-69.445c-38.353 0-69.444 31.092-69.444 69.445 0 38.353 31.09 69.444 69.444 69.444zm0 55.556c-69.036 0-125-55.965-125-125 0-69.036 55.964-125 125-125s125 55.964 125 125c0 69.035-55.964 125-125 125zM388.889 860.577L500 813.511l111.111 47.066V702.358c-36.5 13.446-73.458 20.274-110.733 20.274-37.456 0-74.664-6.894-111.49-20.467v158.412zM333.333 611.45c55.922 37.084 111.603 55.626 167.045 55.626 55.441 0 110.87-18.542 166.289-55.626v332.994L500 873.845l-166.667 70.6V611.45z"/></g></svg>
